server/uploads/lampadas.svg

<svg width="64" height="64" viewBox="0 0 64 64" fill="none" xmlns="http://www.w3.org/2000/svg">
<g clip-path="url(#clip0)">
<path d="M11 28.0001H20V38.0001H11V28.0001Z" stroke="#322153" stroke-width="2"/>
<path d="M38 14.0001C37.6106 15.5888 34 17.3224 34 19.143V26.0001H63V19.143C63 17.3224 58.8894 15.5888 58.5 14.0001H38Z" fill="#34CB79"/>
<path d="M1.03263 38.1936V43.3549C1.03263 44.0721 0.500485 48.5002 8.00041 51.0002L8.50041 54.5002H15.0004H22.5005C22.5005 49.5002 28.0005 49.5002 29.5005 45.5002L29.9359 38.1936H1.03263Z" fill="#34CB79"/>
<path d="M56.2742 12.6265V13.0253L56.663 13.114C60.5727 14.006 63.5 17.5051 63.5 21.6774V26.3387H55.7419H55.2419V26.8387V56.7742C55.2419 60.4824 52.2234 63.5 48.5161 63.5C44.8089 63.5 41.7903 60.4824 41.7903 56.7742V26.8387V26.3387H41.2903H33.5323V21.6774C33.5323 17.5051 36.4596 14.006 40.3693 13.114L40.7581 13.0253V12.6265V7.22581C40.7581 6.10407 41.4809 5.15005 42.4905 4.79L42.8226 4.67159V4.31905V3.09677C42.8226 1.66576 43.9883 0.5 45.4194 0.5H51.6129C53.0439 0.5 54.2097 1.66576 54.2097 3.09677V4.31905V4.67159L54.5417 4.79C55.5514 5.15005 56.2742 6.10407 56.2742 7.22581V12.6265ZM52.6452 4.62903H53.1452V4.12903V3.09677C53.1452 2.2524 52.4589 1.56452 51.6129 1.56452H45.4194C44.5733 1.56452 43.8871 2.2524 43.8871 3.09677V4.12903V4.62903H44.3871H52.6452ZM54.7097 12.8871H55.2097V12.3871V7.22581C55.2097 6.38143 54.5234 5.69355 53.6774 5.69355H43.3548C42.5088 5.69355 41.8226 6.38143 41.8226 7.22581V12.3871V12.8871H42.3226H54.7097ZM43.3548 26.3387H42.8548V26.8387V56.7742C42.8548 59.8961 45.3942 62.4355 48.5161 62.4355C51.638 62.4355 54.1774 59.8961 54.1774 56.7742V26.8387V26.3387H53.6774H51.6129H51.1129V26.8387V56.7742C51.1129 58.2052 49.9471 59.371 48.5161 59.371C47.0851 59.371 45.9194 58.2052 45.9194 56.7742V26.8387V26.3387H45.4194H43.3548ZM47.4839 26.3387H46.9839V26.8387V56.7742C46.9839 57.6186 47.6701 58.3064 48.5161 58.3064C49.3621 58.3064 50.0484 57.6186 50.0484 56.7742V26.8387V26.3387H49.5484H47.4839ZM34.5968 24.7742V25.2742H35.0968H61.9355H62.4355V24.7742V22.7097V20.6452V20.1452H62.2736C61.5604 16.6178 58.4457 13.9516 54.7097 13.9516H42.3226C38.5865 13.9516 35.4718 16.6178 34.7587 20.1452H34.5968V20.6452V22.7097V24.7742Z" fill="#322153" stroke="#322153"/>
<path d="M7.72581 51.5489V51.1076L7.28803 51.0527C3.46762 50.5736 0.5 47.3023 0.5 43.3548V37.6613H30.4677V43.3548C30.4677 47.3023 27.5001 50.5736 23.6797 51.0527L23.2419 51.1076V51.5489V56.7742C23.2419 57.8959 22.5191 58.8499 21.5095 59.21L21.1774 59.3284V59.6809V60.9032C21.1774 62.3342 20.0117 63.5 18.5806 63.5H12.3871C10.9561 63.5 9.79032 62.3342 9.79032 60.9032V59.6809V59.3284L9.45826 59.21C8.4486 58.8499 7.72581 57.8959 7.72581 56.7742V51.5489ZM11.3548 59.3709H10.8548V59.8709V60.9032C10.8548 61.7476 11.5411 62.4355 12.3871 62.4355H18.5806C19.4267 62.4355 20.1129 61.7476 20.1129 60.9032V59.8709V59.3709H19.6129H11.3548ZM9.29032 55.2419H8.79032V55.7419V56.7742C8.79032 57.6185 9.47656 58.3064 10.3226 58.3064H20.6452C21.4912 58.3064 22.1774 57.6185 22.1774 56.7742V55.7419V55.2419H21.6774H9.29032ZM29.4032 39.2258V38.7258H28.9032H2.06452H1.56452V39.2258V41.2903V43.3548C1.56452 47.0468 4.56609 50.0484 8.25806 50.0484H8.79032V53.6774V54.1774H9.29032H21.6774H22.1774V53.6774V50.0484H22.7097C26.4016 50.0484 29.4032 47.0468 29.4032 43.3548V41.2903V39.2258Z" fill="#322153" stroke="#322153"/>
<path d="M27.7795 14.4171L27.4141 14.9547L28.0275 15.1699C29.4481 15.6684 30.4677 17.0036 30.4677 18.5807C30.4677 20.1578 29.4481 21.493 28.0275 21.9915L27.4141 22.2067L27.7795 22.7443C28.1732 23.3235 28.4032 24.022 28.4032 24.7743C28.4032 26.7753 26.7753 28.4033 24.7742 28.4033H6.19355C4.19247 28.4033 2.56452 26.7753 2.56452 24.7743C2.56452 24.022 2.79458 23.3235 3.18823 22.7443L3.55364 22.2067L2.94023 21.9915C1.51965 21.493 0.5 20.1578 0.5 18.5807C0.5 17.0036 1.51965 15.6684 2.94023 15.1699L3.55364 14.9547L3.18823 14.4171C2.79458 13.8379 2.56452 13.1394 2.56452 12.3872C2.56452 10.8101 3.58416 9.47483 5.00475 8.9764L5.61816 8.76118L5.25274 8.22354C4.8591 7.64436 4.62903 6.94588 4.62903 6.19361C4.62903 4.19253 6.25699 2.56458 8.25806 2.56458H18.5806C20.5817 2.56458 22.2097 4.19253 22.2097 6.19361C22.2097 6.85025 22.02 7.46337 21.7036 8.00641L21.2656 8.75812H22.1356H24.7742C26.7753 8.75812 28.4032 10.3861 28.4032 12.3872C28.4032 13.1394 28.1732 13.8379 27.7795 14.4171ZM18.5806 3.62909H8.25806C6.84331 3.62909 5.69355 4.77886 5.69355 6.19361C5.69355 7.60836 6.84331 8.75812 8.25806 8.75812H18.5806C19.9954 8.75812 21.1452 7.60836 21.1452 6.19361C21.1452 4.77886 19.9954 3.62909 18.5806 3.62909ZM24.7742 9.82264H6.19355C4.7788 9.82264 3.62903 10.9724 3.62903 12.3872C3.62903 13.8019 4.7788 14.9517 6.19355 14.9517H24.7742C26.1889 14.9517 27.3387 13.8019 27.3387 12.3872C27.3387 10.9724 26.1889 9.82264 24.7742 9.82264ZM6.19355 27.3388H24.7742C26.1889 27.3388 27.3387 26.189 27.3387 24.7743C27.3387 23.3595 26.1889 22.2097 24.7742 22.2097H6.19355C4.7788 22.2097 3.62903 23.3595 3.62903 24.7743C3.62903 26.189 4.7788 27.3388 6.19355 27.3388ZM4.12903 21.1452H26.8387C28.2535 21.1452 29.4032 19.9955 29.4032 18.5807C29.4032 17.166 28.2535 16.0162 26.8387 16.0162H4.12903C2.71428 16.0162 1.56452 17.166 1.56452 18.5807C1.56452 19.9955 2.71428 21.1452 4.12903 21.1452Z" fill="#322153" stroke="#322153"/>
</g>
<defs>
<clipPath id="clip0">
<rect width="64" height="64" fill="white"/>
</clipPath>
</defs>
</svg>

<?xml version="1.0" encoding="utf-8"?>
<!-- Generator: Adobe Illustrator 24.1.3, SVG Export Plug-In . SVG Version: 6.00 Build 0)  -->
<svg version="1.1" id="Camada_1" xmlns="http://www.w3.org/2000/svg" xmlns:xlink="http://www.w3.org/1999/xlink" x="0px" y="0px"
	 viewBox="0 0 64 64" style="enable-background:new 0 0 64 64;" xml:space="preserve">
<style type="text/css">
	.st0{clip-path:url(#SVGID_2_);}
	.st1{fill:none;stroke:#322153;stroke-width:2;}
	.st2{fill:#409B70;}
	.st3{fill:#322153;stroke:#322153;}
</style>
<g>
	<defs>
		<rect id="SVGID_1_" width="64" height="64"/>
	</defs>
	<clipPath id="SVGID_2_">
		<use xlink:href="#SVGID_1_"  style="overflow:visible;"/>
	</clipPath>
	<g class="st0">
		<path class="st1" d="M11,28h9v10h-9V28z"/>
		<path class="st2" d="M38,14c-0.4,1.6-4,3.3-4,5.1V26h29v-6.9c0-1.8-4.1-3.6-4.5-5.1H38z"/>
		<path class="st2" d="M1,38.2v5.2c0,0.7-0.5,5.1,7,7.6l0.5,3.5H15h7.5c0-5,5.5-5,7-9l0.4-7.3H1z"/>
		<path class="st3" d="M56.3,12.6V13l0.4,0.1c3.9,0.9,6.8,4.4,6.8,8.6v4.7h-7.8h-0.5v0.5v29.9c0,3.7-3,6.7-6.7,6.7
			c-3.7,0-6.7-3-6.7-6.7V26.8v-0.5h-0.5h-7.8v-4.7c0-4.2,2.9-7.7,6.8-8.6l0.4-0.1v-0.4V7.2c0-1.1,0.7-2.1,1.7-2.4l0.3-0.1V4.3V3.1
			c0-1.4,1.2-2.6,2.6-2.6h6.2c1.4,0,2.6,1.2,2.6,2.6v1.2v0.4l0.3,0.1c1,0.4,1.7,1.3,1.7,2.4V12.6z M52.6,4.6h0.5V4.1v-1
			c0-0.8-0.7-1.5-1.5-1.5h-6.2c-0.8,0-1.5,0.7-1.5,1.5v1v0.5h0.5H52.6z M54.7,12.9h0.5v-0.5V7.2c0-0.8-0.7-1.5-1.5-1.5H43.4
			c-0.8,0-1.5,0.7-1.5,1.5v5.2v0.5h0.5H54.7z M43.4,26.3h-0.5v0.5v29.9c0,3.1,2.5,5.7,5.7,5.7c3.1,0,5.7-2.5,5.7-5.7V26.8v-0.5h-0.5
			h-2.1h-0.5v0.5v29.9c0,1.4-1.2,2.6-2.6,2.6c-1.4,0-2.6-1.2-2.6-2.6V26.8v-0.5h-0.5H43.4z M47.5,26.3H47v0.5v29.9
			c0,0.8,0.7,1.5,1.5,1.5c0.8,0,1.5-0.7,1.5-1.5V26.8v-0.5h-0.5H47.5z M34.6,24.8v0.5h0.5h26.8h0.5v-0.5v-2.1v-2.1v-0.5h-0.2
			c-0.7-3.5-3.8-6.2-7.6-6.2H42.3c-3.7,0-6.9,2.7-7.6,6.2h-0.2v0.5v2.1V24.8z"/>
		<path class="st3" d="M7.7,51.5v-0.4l-0.4-0.1c-3.8-0.5-6.8-3.8-6.8-7.7v-5.7h30v5.7c0,3.9-3,7.2-6.8,7.7l-0.4,0.1v0.4v5.2
			c0,1.1-0.7,2.1-1.7,2.4l-0.3,0.1v0.4v1.2c0,1.4-1.2,2.6-2.6,2.6h-6.2c-1.4,0-2.6-1.2-2.6-2.6v-1.2v-0.4l-0.3-0.1
			c-1-0.4-1.7-1.3-1.7-2.4V51.5z M11.4,59.4h-0.5v0.5v1c0,0.8,0.7,1.5,1.5,1.5h6.2c0.8,0,1.5-0.7,1.5-1.5v-1v-0.5h-0.5H11.4z
			 M9.3,55.2H8.8v0.5v1c0,0.8,0.7,1.5,1.5,1.5h10.3c0.8,0,1.5-0.7,1.5-1.5v-1v-0.5h-0.5H9.3z M29.4,39.2v-0.5h-0.5H2.1H1.6v0.5v2.1
			v2.1c0,3.7,3,6.7,6.7,6.7h0.5v3.6v0.5h0.5h12.4h0.5v-0.5V50h0.5c3.7,0,6.7-3,6.7-6.7v-2.1V39.2z"/>
		<path class="st3" d="M27.8,14.4L27.4,15l0.6,0.2c1.4,0.5,2.4,1.8,2.4,3.4s-1,2.9-2.4,3.4l-0.6,0.2l0.4,0.5c0.4,0.6,0.6,1.3,0.6,2
			c0,2-1.6,3.6-3.6,3.6H6.2c-2,0-3.6-1.6-3.6-3.6c0-0.8,0.2-1.5,0.6-2l0.4-0.5L2.9,22c-1.4-0.5-2.4-1.8-2.4-3.4s1-2.9,2.4-3.4
			L3.6,15l-0.4-0.5c-0.4-0.6-0.6-1.3-0.6-2c0-1.6,1-2.9,2.4-3.4l0.6-0.2L5.3,8.2c-0.4-0.6-0.6-1.3-0.6-2c0-2,1.6-3.6,3.6-3.6h10.3
			c2,0,3.6,1.6,3.6,3.6c0,0.7-0.2,1.3-0.5,1.8l-0.4,0.8h0.9h2.6c2,0,3.6,1.6,3.6,3.6C28.4,13.1,28.2,13.8,27.8,14.4z M18.6,3.6H8.3
			c-1.4,0-2.6,1.1-2.6,2.6s1.1,2.6,2.6,2.6h10.3c1.4,0,2.6-1.1,2.6-2.6S20,3.6,18.6,3.6z M24.8,9.8H6.2c-1.4,0-2.6,1.1-2.6,2.6
			c0,1.4,1.1,2.6,2.6,2.6h18.6c1.4,0,2.6-1.1,2.6-2.6C27.3,11,26.2,9.8,24.8,9.8z M6.2,27.3h18.6c1.4,0,2.6-1.1,2.6-2.6
			c0-1.4-1.1-2.6-2.6-2.6H6.2c-1.4,0-2.6,1.1-2.6,2.6C3.6,26.2,4.8,27.3,6.2,27.3z M4.1,21.1h22.7c1.4,0,2.6-1.1,2.6-2.6
			c0-1.4-1.1-2.6-2.6-2.6H4.1c-1.4,0-2.6,1.1-2.6,2.6C1.6,20,2.7,21.1,4.1,21.1z"/>
	</g>
</g>
</svg>
